!!!OTL: Qingzhu chengli suweiai
!!!ARE: Asia, China,ÿHubei Yangxing
!! I, 408
!!!SCT: C2157
!!!YEM: Copyright 1995, estate of Helmut Schaffrath.
**kern
*ICvox
*Ivox
*M2/4
*k[b-e-a-]
*E-:
{16b-
16g
4b-
16b-
16cc
=1
4ff
16dd
16ff
16dd
16cc
=2
16b-
16cc
8dd
16cc
16b-
8g
=3
8b-
8b-
4r}
=4
{8cc
16b-
16cc
8dd
16cc
16dd
=5
16b-
16cc
16b-
16g
4f
=6
16f
16g
8b-
16g
16f
8d
=7
8f
8f
8r
16f
16g
=8
16f
16g
8b-
16g
16f
8d
=9
8f
8f
4r}
=10
{16f
16g
16f
16g
8b-
8b-
=11
16f
16g
16f
16g
8b-
8b-
=12
16f
16g
8b-
16g
16b-
16g
16f
=13
8.b-
16cc
8g
8f
=14
[2e-
=15
2e-]}
==
!!!AGN: Xiaodiao
!!!AMT: simple duple
!!!AIN: vox
!!!EED: Helmut Schaffrath
!!!EEV: 1.0
*-
!!!ONB: Tied note syntax fixed by Craig Sapp, 2004/05/03/
